X: 35847
T: Sam Cormier's
R: reel
M: 4/4
K: Dmajor
D2A,D B,DA,D|FAdA GFEA|DF~F2 Adfe|dBBA BdAF|
D2A,D B,DA,D|FAdA GFEA|DFBF AF~F2|1 EDEF DEFE:|2 EDEF ADDg||
|:fdAG FAdf|eA (3cBA e^deg|fedB BAFA|dBAD FEEg|
fdAG FAdf|eA (3cBA e^def|gfed fedB|1 ABde fdfg:|2 ABde fddE||

